icons/fathom.svg

<svg width="32" height="32" viewBox="0 0 32 32" fill="none" xmlns="http://www.w3.org/2000/svg">
<path fill-rule="evenodd" clip-rule="evenodd" d="M3.36627 28.6337C0.910867 26.1783 0 22.1783 0 16C0 9.82167 0.910867 5.82167 3.36627 3.36627C5.82167 0.910867 9.82167 0 16 0C22.1783 0 26.1783 0.910867 28.6337 3.36627C31.0891 5.82167 32 9.82167 32 16C32 22.1783 31.0891 26.1783 28.6337 28.6337C26.1783 31.0891 22.1783 32 16 32C9.82167 32 5.82167 31.0891 3.36627 28.6337Z" fill="white"/>
<path fill-rule="evenodd" clip-rule="evenodd" d="M20.8081 24.333V7.67001C22.2679 8.5148 23.4801 9.7294 24.3229 11.1918C25.1656 12.6543 25.6093 14.313 25.6093 16.0015C25.6093 17.69 25.1656 19.3488 24.3229 20.8112C23.4801 22.2736 22.2679 23.4882 20.8081 24.333ZM14.3212 10.4953C15.7723 10.506 17.1604 11.0907 18.1827 12.1221C19.2051 13.1535 19.7787 14.5478 19.7787 16.0011C19.7787 17.4543 19.2051 18.8487 18.1827 19.88C17.1604 20.9115 15.7723 21.4962 14.3212 21.5068V10.4953ZM9.89006 12.7203C10.5382 12.7203 11.1718 12.9127 11.7108 13.2733C12.2497 13.6338 12.6698 14.1464 12.9179 14.7461C13.166 15.3458 13.2309 16.0056 13.1044 16.6423C12.978 17.2789 12.6659 17.8637 12.2076 18.3227C11.7493 18.7817 11.1653 19.0942 10.5296 19.2208C9.8939 19.3475 9.23497 19.2824 8.63616 19.034C8.03735 18.7856 7.52555 18.3649 7.16548 17.8252C6.80542 17.2854 6.61327 16.6509 6.61333 16.0018C6.61333 15.1315 6.95855 14.2968 7.57306 13.6814C8.18757 13.066 9.02103 12.7203 9.89006 12.7203Z" fill="black"/>
</svg>

<svg xmlns="http://www.w3.org/2000/svg" width="32" height="32" fill="none" viewBox="0 0 32 32">
  <path fill="#fff" fill-rule="evenodd" d="M3.366 28.634C.911 26.178 0 22.178 0 16S.91 5.822 3.366 3.366C5.822.911 9.822 0 16 0s10.178.91 12.634 3.366C31.089 5.822 32 9.822 32 16s-.91 10.178-3.366 12.634C26.178 31.089 22.178 32 16 32s-10.178-.91-12.634-3.366Z" clip-rule="evenodd"/>
  <path fill="#000" fill-rule="evenodd" d="M20.808 24.333V7.67a9.633 9.633 0 0 1 0 16.663Zm-6.487-13.838c1.451.01 2.84.596 3.862 1.627a5.51 5.51 0 0 1 0 7.758 5.494 5.494 0 0 1-3.862 1.627V10.495ZM9.89 12.72a3.274 3.274 0 0 1 3.028 2.026 3.287 3.287 0 0 1-.71 3.577 3.275 3.275 0 0 1-5.595-2.321c0-.87.346-1.705.96-2.32a3.274 3.274 0 0 1 2.317-.962Z" clip-rule="evenodd"/>
</svg>
